src/assets/outline/BinanceCoin.svg

<svg width="24" height="24" viewBox="0 0 24 24"  xmlns="http://www.w3.org/2000/svg">
<path d="M15.9999 10.7495C15.8099 10.7495 15.6199 10.6795 15.4699 10.5295L11.9999 7.05945L8.52994 10.5295C8.23994 10.8195 7.75994 10.8195 7.46994 10.5295L5.46994 8.52945C5.17994 8.23945 5.17994 7.75945 5.46994 7.46945L11.4699 1.46945C11.7599 1.17945 12.2399 1.17945 12.5299 1.46945L18.5299 7.46945C18.8199 7.75945 18.8199 8.23945 18.5299 8.52945L16.5299 10.5295C16.3799 10.6795 16.1899 10.7495 15.9999 10.7495ZM11.9999 5.24945C12.1899 5.24945 12.3799 5.31945 12.5299 5.46945L15.9999 8.93945L16.9399 7.99945L11.9999 3.05945L7.05994 7.99945L7.99994 8.93945L11.4699 5.46945C11.6199 5.31945 11.8099 5.24945 11.9999 5.24945Z" />
<path d="M11.9999 22.7495C11.8099 22.7495 11.6199 22.6795 11.4699 22.5295L5.46994 16.5295C5.17994 16.2395 5.17994 15.7595 5.46994 15.4695L7.46994 13.4695C7.75994 13.1795 8.23994 13.1795 8.52994 13.4695L11.9999 16.9395L15.4699 13.4695C15.7599 13.1795 16.2399 13.1795 16.5299 13.4695L18.5299 15.4695C18.8199 15.7595 18.8199 16.2395 18.5299 16.5295L12.5299 22.5295C12.3799 22.6795 12.1899 22.7495 11.9999 22.7495ZM7.05994 15.9995L11.9999 20.9395L16.9399 15.9995L15.9999 15.0595L12.5299 18.5295C12.2399 18.8195 11.7599 18.8195 11.4699 18.5295L7.99994 15.0595L7.05994 15.9995Z" />
<path d="M19.7499 14.9995C19.5599 14.9995 19.3699 14.9295 19.2199 14.7795L16.9699 12.5295C16.6799 12.2395 16.6799 11.7595 16.9699 11.4695L19.2199 9.21945C19.5099 8.92945 19.9899 8.92945 20.2799 9.21945L22.5299 11.4695C22.8199 11.7595 22.8199 12.2395 22.5299 12.5295L20.2799 14.7795C20.1299 14.9295 19.9399 14.9995 19.7499 14.9995ZM18.5599 11.9995L19.7499 13.1895L20.9399 11.9995L19.7499 10.8095L18.5599 11.9995Z" />
<path d="M4.24994 14.9995C4.05994 14.9995 3.86994 14.9295 3.71994 14.7795L1.46994 12.5295C1.17994 12.2395 1.17994 11.7595 1.46994 11.4695L3.71994 9.21945C4.00994 8.92945 4.48994 8.92945 4.77994 9.21945L7.02994 11.4695C7.31994 11.7595 7.31994 12.2395 7.02994 12.5295L4.77994 14.7795C4.62994 14.9295 4.43994 14.9995 4.24994 14.9995ZM3.05994 11.9995L4.24994 13.1895L5.43994 11.9995L4.24994 10.8095L3.05994 11.9995Z" />
<path d="M12 15.2309C11.81 15.2309 11.62 15.1609 11.47 15.0109L8.98996 12.5309C8.69996 12.2409 8.69996 11.7609 8.98996 11.4709L11.47 8.99094C11.76 8.70094 12.24 8.70094 12.53 8.99094L15.01 11.4709C15.3 11.7609 15.3 12.2409 15.01 12.5309L12.53 15.0109C12.38 15.1509 12.19 15.2309 12 15.2309ZM10.58 12.0009L12 13.4209L13.42 12.0009L12 10.5809L10.58 12.0009Z" />
</svg>

<?xml version="1.0" encoding="UTF-8"?>
<svg width="24" height="24" viewBox="0 0 24 24" xmlns="http://www.w3.org/2000/svg">
 <path d="m16 10.75c-0.19 0-0.38-0.07-0.53-0.22l-3.47-3.47-3.47 3.47c-0.29 0.29-0.77 0.29-1.06 0l-2-2c-0.29-0.29-0.29-0.77 0-1.06l6-6c0.29-0.29 0.77-0.29 1.06 0l6 6c0.29 0.29 0.29 0.77 0 1.06l-2 2c-0.15 0.15-0.34 0.22-0.53 0.22zm-4-5.5c0.19 0 0.38 0.07 0.53 0.22l3.47 3.47 0.94-0.94-4.94-4.94-4.94 4.94 0.94 0.94 3.47-3.47c0.15-0.15 0.34-0.22 0.53-0.22z"/>
 <path d="m12 22.75c-0.19 0-0.38-0.07-0.53-0.22l-6-6c-0.29-0.29-0.29-0.77 0-1.06l2-2c0.29-0.29 0.77-0.29 1.06 0l3.47 3.47 3.47-3.47c0.29-0.29 0.77-0.29 1.06 0l2 2c0.29 0.29 0.29 0.77 0 1.06l-6 6c-0.15 0.15-0.34 0.22-0.53 0.22zm-4.94-6.75 4.94 4.94 4.94-4.94-0.94-0.94-3.47 3.47c-0.29 0.29-0.77 0.29-1.06 0l-3.47-3.47-0.94 0.94z"/>
 <path d="m19.75 15c-0.19 0-0.38-0.07-0.53-0.22l-2.25-2.25c-0.29-0.29-0.29-0.77 0-1.06l2.25-2.25c0.29-0.29 0.77-0.29 1.06 0l2.25 2.25c0.29 0.29 0.29 0.77 0 1.06l-2.25 2.25c-0.15 0.15-0.34 0.22-0.53 0.22zm-1.19-3 1.19 1.19 1.19-1.19-1.19-1.19-1.19 1.19z"/>
 <path d="m4.2499 15c-0.19 0-0.38-0.07-0.53-0.22l-2.25-2.25c-0.29-0.29-0.29-0.77 0-1.06l2.25-2.25c0.29-0.29 0.77-0.29 1.06 0l2.25 2.25c0.29 0.29 0.29 0.77 0 1.06l-2.25 2.25c-0.15 0.15-0.34 0.22-0.53 0.22zm-1.19-3 1.19 1.19 1.19-1.19-1.19-1.19-1.19 1.19z"/>
 <path d="m12 15.231c-0.19 0-0.38-0.07-0.53-0.22l-2.48-2.48c-0.29-0.29-0.29-0.77 0-1.06l2.48-2.48c0.29-0.29 0.77-0.29 1.06 0l2.48 2.48c0.29 0.29 0.29 0.77 0 1.06l-2.48 2.48c-0.15 0.14-0.34 0.22-0.53 0.22zm-1.42-3.23 1.42 1.42 1.42-1.42-1.42-1.42-1.42 1.42z"/>
</svg>
